X:1
T:Sy iay du mal
T:Vulfran
T:Source : Livre XX de 28 chansons nouvelles à 4 parties---Paris---P.Attaingnant---1546. Editor : André Vierendeels (21/07/18) Notes : Original clefs : C1, C3, C4, F4 Original note values have been halved Editorial accidentals above the staff Square bracket indicates ligature
T:Sy iay du mal
T:©
T:©
T:©
C:Vulfran
Z:©
%%score [ 1 [ 2 3 ] 4 ]
L:1/8
Q:1/4=120
M:2/2
K:C
V:1 treble nm="Alto" snm="A"
V:2 treble-8 nm="Tenor 1" snm="T 1"
V:3 treble-8 nm="Tenor 2" snm="T 2"
V:4 bass nm="Bass" snm="B"
V:1
 c4 c2 B2 | G2 G2 A4 | F4 E4 | G4 G2 G2 | A2 c2 B2 A2- | A2 G4 F2 | G4 z4 :| G4 G4- | G4 G4 | %9
w: Sy iay du|mal pour bien|ay- mer,|en doibz ie'es-|tre des- es- ti|_ mé _|e?|hel- las,|_ ma|
w: Mais plus- tost|lon deb- vroyt-|blas- mer|cel- luy de|qui ie suys ay-|* mé- *|e,|||
 G2 G2 E2 D2 | FGAB AG G2- | G2 F2 G4- | G4 z2 G2 | c6 c2 | A6 A2 | G2 E2 F4 | E4 z4 | G4 A2 A2 | %18
w: pei- ne non nom-|mé- * * * * * *|* * e,|_ me|faict tant|de mal|re- cep- *|voir,|que tost ie|
w: |||||||||
 BAGF G2 c2 |"^#" B2 A4 G2 | A2 A2 AGAB | c2 c2 A2 c2 | c2 c2 B2 B2 | AGFE D2 A2- |"^#" AG G4 F2 | %25
w: se- * * * * ray|con- som- mé,|e, si plus _ _ _|_ de bien, si|plus de bien n'ay|que _ _ _ _ d'es-||
w: |||||||
 G4 z4 | G4 A2 A2 | BAGF G2 c2 | B2 A4 G2 | A2 A2 AGAB | c2 c2 A2 c2 | c2 c2 B2 B2 | AGFE D2 A2- | %33
w: poir,|que tost ie|se- * * * * ray|con som- mé-|e, si plus _ _ _|_ de bien, si|plus de bien n'ay|que _ _ _ _ d'es-|
w: ||||||||
 AG G4 F2 | G8 |] %35
w: |poir.|
w: ||
V:2
 e4 f2 d2 | e2 e2 c4 | d4 G4 | B4 e2 e2 | f2 g2 g2 f2 | e2 c2 d4 |"^#" B4 z4 :| d4 e4- | e4 e4 | %9
w: Sy iay du|mal pour bien|ay- mer,|en doibz ie'es-|tre des- es- ti-|mé- * *|e?|hel- las,|_ hel-|
w: Mais plus- tost|lon deb- vroyt|blas- mer|cel- luy- de|qui ie suys ay-|mé- * *|e,|||
 d2 d2 c2 B2 | A6 d2- | dc c4 B2 | c2 c2 e4- | e4 z2 c2 | f6 f2 | d2 c2 A2 B2 | c4 z4 | c4 e2 e2 | %18
w: las, ma pei- ne|non nom-|* * mé- *|e, me faict,|_ me|faict tant|de mal re- cep-|voir,|que tost ie|
w: |||||||||
 gfed e2 g2 | g2 f2 e4 | c2 c2 d2 d2 | e2 c2 cdef | g2 g2 dcde | f6 f2 | d2 c2 d4 | B4 z4 | %26
w: se- * * * * ray|con- som- mé-|e, si plus de|bien, si plus _ _ _|_ de bien _ _ _|_ n'ay|que d'es- *|poir,|
w: ||||||||
 c4 e2 e2 | gfed e2 g2 | g2 f2 e4 | c2 c2 d2 d2 | e2 c2 cdef | g2 g2 dcde | f6 f2 | d2 c2 d4 | %34
w: que tost ie|se- * * * * ray|con som- mé-|e, si plus de|bien, si plus _ _ _|_ de bien _ _ _|_ n'ay|que d'es- *|
w: ||||||||
 B8 |] %35
w: poir.|
w: |
V:3
 G4 A2 B2 | c2 B2 A2 c2- | c2 B2 c4 | d4 c2 B2 | d2 e2 d3 c | B2 AG A4 | G4 z4 :| B4 c4- | c4 c4 | %9
w: Sy iay du|mal pour bien ay-|* * mer,|en doibz ie'es-|tre des- es- ti-|mé- * * *|e?|hel- las,|_ hel-|
w: Mais plus- tost|lon deb- vroyt blas-|* * mer,|cel- luy de|qui ie suys- ay-|mé- * * *|e,|||
 B4 z4 | z2 d2 c2 B2 | c2 c2 d4 | e2 G2 c4- | c2 c2 A2 A2 | cBAG A4 | B2 G4 F2 | G4 z4 | G4 c2 c2 | %18
w: las,|ma pei- ne|non nom- mé-|e, me faict|_ tant de mal|re- * * * *|cep- * *|voir,|que tost ie|
w: |||||||||
 B6 e2 | d2 c2 B4 | A2 A2 F2 F2 | G4 z4 | z2 G2 GABc | d2 d2 A2 c2 | B2 AG A4 | G4 z4 | G4 c2 c2 | %27
w: se- ray|con- som- mé-|e, si plus de|bien,|si plus _ _ _|de bien n'ay que|d'es- * * *|poir,|que tost ie|
w: |||||||||
 B6 e2 | d2 c2 B4 | A2 A2 F2 F2 | G4 z4 | z2 G2 GABc | d2 d2 A2 c2 | B2 AG A4 | G8 |] %35
w: se- ray|con som- mé-|e, si plus de|bien,|si plus _ _ _|de bien n'ay que|d'es- * * *|poir.|
w: ||||||||
V:4
 C,4 F,2 G,2 | C,2 E,2 F,4 | D,4 C,4 | G,,4 C,2 E,2 | D,2 C,2 G,2 D,2 | E,4 D,4 | G,,4 z4 :| %7
w: Sy iay du|mal pour bien|ay- mer,|en doibz ie'es-|tre des- es- ti-|mé- *|e?|
w: Mais plus tost|lon deb- royt-|blas- mer|cel- luy de|qui ie suys ay-|mé- *|e,|
 G,,4 C,4- | C,4 C,4 | G,4 z2 G,2 | F,2 D,2 F,2 G,2 | A,4 G,4 | C,8 | z2 C,2 F,4- | %14
w: hel- las,|_ hel-|las, ma|pei- ne non nom-|mé- *|e,|faict tant|
w: |||||||
 F,2 F,2 D,2 F,2 | G,2 C,2 D,4 | C,4 z4 | C,4 A,,2 A,,2 | E,6 C,2 | G,2 A,2 E,4 | %20
w: _ de mal re-|cep- * *|voir,|que tost ie|se- ray|con- som- mé-|
w: ||||||
 A,,2 A,,2 D,2 D,2 | C,4 z2 C,2 | C,D,E,F, G,2 G,2 | D,3 E, F,2 F,2 | G,2 E,2 D,4 | G,,4 z4 | %26
w: e, si plus de|bien, si|plus _ _ _ _ de|bien _ _ n'ay|que d'es- *|poir,|
w: ||||||
 C,4 A,,2 A,,2 | E,6 C,2 | G,2 A,2 E,4 |"^#" A,,2 A,,2 D,2 D,2 | C,4 z2 C,2 | C,D,E,F, G,2 G,2 | %32
w: que tost ie|se- ray|con- som- mé-|e, si plus de|bien, si|plus _ _ _ _ de|
w: ||||||
 D,3 E, F,2 F,2 | G,2 E,2 D,4 | G,,8 |] %35
w: bien _ _ n'ay|que d'es- *|poir|
w: |||

